X: 403
T: Sae weel as I was kiss'd the Streen
R: jig
M: 6/8
L: 1/8
Z: 2012 John Chambers <jc:trillian.mit.edu>
B: J. Anderson "Budget of Strathspeys, Reels and Country Dances" (Early 1800s) p.40 #3
F: http://imslp.org/wiki/Anderson%27s_Budget_of_Strathspeys,_Reels_and_Country_Dances_(Various)
N: The double bar at the end of the first line is fuzzy; repeats assumed to go with the final repeat symbol.
K: Ador
E |\
A>BA ABd | (e/f/)gB A2c | B>AB GAB | (B/c/)dB G2B |\
cBc dcd | ede a2g | edB ABd | edB A2 :|
|: g |\
a2A ABA | a2A A2f | g2G GAG | BAB GAB |\
cBc dcd | ede a2g | edB ABd | e2A A2 :|
